!!!!SEGMENT: pl-gd--ee-2628--006-019_stabile-annibale--il-terzo-libro-de-madrigali-a-cinque-voci-ecco-la-negra-sera.krn
!!!cenid: 15xx:1086
!!!COM: Stabile, Annibale
!!!COM-rismID: pe30009662
!!!CDT: ~1535-1595/04
!!!CNT: Italian
!!!GTL: Il terzo libro de madrigali a cinque voci
!!!OTL: Ecco la negra sera
!!!OMV: 019
!!!PDT: 1585
!!!AGN:
!!!YEC: Copyright 2022 Narodowy Instytut Fryderyka Chopina (https://polishscores.org)
!!!YEM: License CC-BY-4.0 (https://creativecommons.org/licenses/by/4.0)
!!!SMS-siglum: PL-GD
!!!SMS-shelfmark: Ee 2628
!!!SMS-shelfwork: 006-019 G
!!!SMS-variant:
!!!SMS-altvar:
!!!NIFC-rismSourceID: 1001203361
!!!NIFC-rismChildID: 990060530
!!!NIFC-islandoraID: pl-gd:66139
!!!URL-pdf-islandora: https://repozytorium.nifc.pl/islandora/object/pl-gd%3A66139/datastream/PDF/view
!!!URL-scan: https://polish.musicsources.pl/pl/lokalizacje/galeria/klocki-introligatorskie/673 @EN{Scan on Polish Music Sources Website} @PL{Skany w portalu Dziedzictwo Muzyki Polskiej w otwartym dostępie}
!!!IIIF:
!!!ONB-nifc: UWAGA: Canto: s. 90-101, Tenore: s. 246-257, Basso: s. 402-413, quìnto: s. 724-735. Dla głosu Alto proszę skorzystać z https://pbc.gda.pl/dlibra/publication/87582/edition/79411/content, str. 25-48. Uwaga: utwory podzielone wg spisu treści dostępnych na końcu ksiąg – proszę sprawdzać sąsiednie tytuły. Głos quìnto proszę umieszczać wg ambitusu (może się różnić w zależności od utworu).
!!!AIN: 1 alto 1 bass 1 soprn 1 tenor 1 vox
!!!key: F
**kern	**text	**kern	**text	**kern	**text	**kern	**text	**kern	**text
*part5	*	*part4	*	*part3	*	*part2	*	*part1	*
*staff5	*	*staff4	*	*staff3	*	*staff2	*	*staff1	*
*I"BASSO	*	*I"TENORE	*	*I"ALTO	*	*I"QVINTO	*	*I"CANTO	*
*I'B	*	*I'T	*	*I'A	*	*I'V	*	*I'S	*
*ICvox	*	*ICvox	*	*ICvox	*	*ICvox	*	*ICvox	*
*Ibass	*	*Itenor	*	*Ialto	*	*Ivox	*	*Isoprn	*
*clefF3	*	*clefC3	*	*clefC2	*	*clefG2	*	*clefG2	*
*k[b-]	*	*k[b-]	*	*k[b-]	*	*k[b-]	*	*k[b-]	*
*F:	*	*F:	*	*F:	*	*F:	*	*F:	*
*M4/4	*	*M4/4	*	*M4/4	*	*M4/4	*	*M4/4	*
*met(C)	*	*met(C)	*	*met(C)	*	*met(C)	*	*met(C)	*
=1-	=1-	=1-	=1-	=1-	=1-	=1-	=1-	=1-	=1-
!LO:TX:t=P:problem:podwójnie zapisany znak przykluczowy: BB- B-	!	!	!	!LO:TX:t=P:problem:podwójnie zapisany znak przykluczowy: B b-	!	!	!	!	!
0r	.	1c	EC-	0r	.	0r	.	0r	.
=2-	=2-	=2-	=2-	=2-	=2-	=2-	=2-	=2-	=2-
.	.	2F/	-co	.	.	.	.	.	.
.	.	2F/	la	.	.	.	.	.	.
=3-	=3-	=3-	=3-	=3-	=3-	=3-	=3-	=3-	=3-
1F	EC-	2.c\	ne-	1a	EC-	1cc	EC-	1ff	EC-
.	.	4d\	.	.	.	.	.	.	.
=4-	=4-	=4-	=4-	=4-	=4-	=4-	=4-	=4-	=4-
2C/	-co	2e\	.	2g\	-co	2cc\	-co	2ee\	-co
2C/	la	2g\	-gra	2e/	la	2cc\	la	2ee\	la
=5-	=5-	=5-	=5-	=5-	=5-	=5-	=5-	=5-	=5-
2.F/	ne-	1c	ſe-	2.a\	ne-	2.cc\	ne-	1.ff	ne-
4G\	.	.	.	4b-\	.	4b-/	.	.	.
=6-	=6-	=6-	=6-	=6-	=6-	=6-	=6-	=6-	=6-
2A\	.	1c	-ra	4cc\	.	2a/	-gra	.	.
.	.	.	.	4c/	-gra	.	.	.	.
2c\	-gra	.	.	4.e/	ſe-	4g/	ſe-	2ee\	-gra
.	.	.	.	.	.	2cc\	.	.	.
.	.	.	.	8f\	.	.	.	.	.
=7-	=7-	=7-	=7-	=7-	=7-	=7-	=7-	=7-	=7-
1G	ſe-	2r	.	1g	.	.	.	1dd	ſe-
!	!	!	!	!	!	!LO:N:acc=#	!	!	!
.	.	.	.	.	.	8bn/	.	.	.
.	.	.	.	.	.	8a/	.	.	.
!	!	!	!	!	!	!LO:N:acc=#	!	!	!
.	.	2g\	Che	.	.	2bn/	.	.	.
=8-	=8-	=8-	=8-	=8-	=8-	=8-	=8-	=8-	=8-
2.C/	-ra	8e\	ca-	1g	-ra	1cc	-ra	2cc\	-ra
.	.	8f\	.	.	.	.	.	.	.
.	.	8g\	.	.	.	.	.	.	.
.	.	8f\	.	.	.	.	.	.	.
*	*	*custos:e	*	*	*	*	*	*	*
!	!	!LO:LB:g=original	!	!	!	!	!	!	!
.	.	4e\	.	.	.	.	.	4r	.
4c\	Che	4g\	de	.	.	.	.	4ee\	Che
=9-	=9-	=9-	=9-	=9-	=9-	=9-	=9-	=9-	=9-
8A\	ca-	1c	giù	2r	.	2r	.	4ff\	ca-
8B-\	.	.	.	.	.	.	.	.	.
8c\	.	.	.	.	.	.	.	8ee\	.
8B-\	.	.	.	.	.	.	.	8dd\	.
*custos:A	*	*	*	*	*	*	*	*	*
!LO:LB:g=original	!	!	!	!	!	!	!	!	!
4A\	.	.	.	4r	.	4r	.	4cc\	.
4F/	-de	.	.	4c/	Che	4ff\	Che	4a/	-de
*	*	*	*	*custos:c	*	*	*	*	*
!	!	!	!	!LO:LB:g=original	!	!	!	!	!
=10-	=10-	=10-	=10-	=10-	=10-	=10-	=10-	=10-	=10-
1C	giù	2r	.	8c/	ca-	8ee\	ca-	1g	giù
.	.	.	.	8d/	.	8ff\	.	.	.
.	.	.	.	8e\	.	8gg\	.	.	.
.	.	.	.	8f\	.	8ff\	.	.	.
*	*	*	*ij	*	*	*custos:ee	*	*	*
!	!	!	!	!	!	!LO:LB:g=original	!	!	!
.	.	4r	.	4g\	.	4ee\	.	.	.
.	.	4c\	Che	4e/	-de	4cc\	-de	.	.
*	*	*	*	*	*	*	*	*custos:a	*
!	!	!	!	!	!	!	!	!LO:LB:g=original	!
=11-	=11-	=11-	=11-	=11-	=11-	=11-	=11-	=11-	=11-
1r	.	8d\	ca-	2f\	giù	2a/	giù	4r	.
.	.	8e\	.	.	.	.	.	.	.
.	.	8f\	.	.	.	.	.	4a/	Che
.	.	8e\	.	.	.	.	.	.	.
.	.	4d\	.	4r	.	2dd\	Che	4f/	ca-
*	*	*	*	*	*ij	*	*	*	*
.	.	4B-/	-de	4b-\	Che	.	.	4d/	-de
=12-	=12-	=12-	=12-	=12-	=12-	=12-	=12-	=12-	=12-
2r	.	1F	giù	8a\	ca-	8cc\	ca-	8f/	giù-
.	.	.	.	8b-\	.	8b-y\	.	8g/	.
.	.	.	.	8cc\	.	8a/	.	8a/	.
.	.	.	.	8b-\	.	8g/	.	8b-/	.
*	*ij	*	*Xij	*	*	*	*	*	*ij
4r	.	.	.	8a\	.	8f/	.	4cc\	-Che
.	.	.	.	8g\	.	8g/	.	.	.
4A\	Che	.	.	2f\	.	8a/	.	4cc\	ca-
.	.	.	.	.	.	8b-/	.	.	.
=13-	=13-	=13-	=13-	=13-	=13-	=13-	=13-	=13-	=13-
8F\	ca-	4r	.	.	.	4cc\	.	8a/	-de-
8G\	.	.	.	.	.	.	.	8b-/	.
8A\	.	4c/	Che	4e\	-de	4a/	-de	8cc\	.
8G\	.	.	.	.	.	.	.	8b-\	.
4F/	.	4c/	ca-	2f\	giù	1a/	giù	4a/	.
4D/	-de	4d\	-de	.	.	.	.	4f/	.
=14-	=14-	=14-	=14-	=14-	=14-	=14-	=14-	=14-	=14-
2AA/	giù	8c/	giù	2r	.	.	.	2e/	-giù
.	.	8B-/	.	.	.	.	.	.	.
.	.	8A/	.	.	.	.	.	.	.
.	.	8G/	.	.	.	.	.	.	.
*	*Xij	*	*	*	*Xij	*	*	*	*Xij
4r	.	2F/	.	2a\	Da	2cc\	Da	2f/	Da
4A\	Da	.	.	.	.	.	.	.	.
=15-	=15-	=15-	=15-	=15-	=15-	=15-	=15-	=15-	=15-
4d\	gl'al-	2r	.	4b-\	gl'al-	4dd\	gl'al-	4f/	gl'al-
4c\	-ti	.	.	4cc\	-ti	4ee\	-ti	4g/	-ti
2B-\	mon-	4r	.	2dd\	mon-	2ff\	mon-	2b-/	mon-
.	.	2f\	da	.	.	.	.	.	.
=16-	=16-	=16-	=16-	=16-	=16-	=16-	=16-	=16-	=16-
2F/	-ti	.	.	4cc\	-ti	4ff\	-ti	4a/	-ti
*	*	*	*	*	*	*	*	*	*ij
.	.	2c\	gl'al-	4a\	Da	4ff\	Da	4cc\	Da
2r	.	.	.	4g\	gl'al-	4ee\	gl'al-	4cc\	gl'al-
.	.	4d\	-ti	4f\	-ti	4dd\	-ti	4a/	-ti
*	*	*custos:B-	*	*custos:b-	*	*	*	*custos:dd	*
!	!	!LO:LB:g=original	!	!LO:LB:g=original	!	!	!	!LO:LB:g=original	!
=17-	=17-	=17-	=17-	=17-	=17-	=17-	=17-	=17-	=17-
1r	.	8B-/	mon-	2.b-\	mon-	2.ff\	mon-	2dd\	mon-
.	.	8c/	.	.	.	.	.	.	.
.	.	8d\	.	.	.	.	.	.	.
.	.	8e\	.	.	.	.	.	.	.
.	.	4.f\	.	.	.	.	.	4cc\	-ti
*	*	*	*	*	*	*	*	*	*Xij
.	.	.	.	4a\	.	4f/	-ti et	4.dd\	et
.	.	16e\	.	.	.	.	.	.	.
.	.	16d\	.	.	.	.	.	.	.
*	*	*	*	*	*	*custos:cc	*	*	*
!	!	!	!	!	!	!LO:LB:g=original	!	!	!
=18-	=18-	=18-	=18-	=18-	=18-	=18-	=18-	=18-	=18-
2r	.	4e\	.	4g\	-ti	2cc\	io	.	.
.	.	.	.	.	.	.	.	8cc\	i-
.	.	4f\	.	4a\	et	.	.	2cc\	.
2G\	et	4d\	-ti	2g\	io	2dd\	.	.	.
!	!	!	!	!	!	!	!	!LO:N:acc=#	!
.	.	4.g\	et	.	.	.	.	4bn/	.
*custos:c	*	*	*	*	*	*	*	*	*
!LO:LB:g=original	!	!	!	!	!	!	!	!	!
=19-	=19-	=19-	=19-	=19-	=19-	=19-	=19-	=19-	=19-
2c\	io	.	.	4e/	So-	4r	.	2cc\	-o
.	.	8f\	i-	.	.	.	.	.	.
.	.	8e\	.	4e/	-no	4g/	et	.	.
.	.	8d\	.	.	.	.	.	.	.
4c\	So-	2e\	.	4g\	an-	4cc\	io	2r	.
4A\	-no	.	.	4a\	-cor	8cc\	So-	.	.
.	.	.	.	.	.	8cc\	-no	.	.
=20-	=20-	=20-	=20-	=20-	=20-	=20-	=20-	=20-	=20-
4B-\	an-	2d\	-o	2f\	te-	4dd\	an-	4r	.
4d\	-cor	.	.	.	.	4ff\	-cor	4a/	So-
4c\	te-	2r	.	2g\	-co	4ee\	te-	4cc\	-no
4B-\	-co	.	.	.	.	2dd\	-co	4dd\	an-
=21-	=21-	=21-	=21-	=21-	=21-	=21-	=21-	=21-	=21-
4.A\	quì	4r	.	2.a\	quì	.	.	4ff\	-cor
.	.	4A/	et	.	.	2cc\	quì	4ee\	te-
8G\	col	.	.	.	.	.	.	.	.
4F/	gre-	2d\	io	.	.	.	.	1dd\	-co
4G\	-ge	.	.	4g\	col	4b-/	col	.	.
=22-	=22-	=22-	=22-	=22-	=22-	=22-	=22-	=22-	=22-
2D/	mi-	4d\	So-	8f\	gre-	2.a/	gre-	.	.
.	.	.	.	8g\	.	.	.	.	.
.	.	4f\	-no	8a\	.	.	.	.	.
.	.	.	.	8b-\	.	.	.	.	.
2A\	-o	4e\	an-	4cc\	.	.	.	2r	.
.	.	4c\	-cr	2g\	-ge	4cc\	-ge	.	.
=23-	=23-	=23-	=23-	=23-	=23-	=23-	=23-	=23-	=23-
2r	.	4d\	te-	.	.	2b-/	mio	2r	.
.	.	4e\	-co	4g\	mi-	.	.	.	.
*	*	*custos:f	*	*	*	*	*	*	*
!	!	!LO:LB:g=original	!	!	!	!	!	!	!
4r	.	4f\	quì	2a\	-o	4a/	col	2cc\	quì
4A\	So-	4e\	So-	.	.	2a/	gre-	.	.
=24-	=24-	=24-	=24-	=24-	=24-	=24-	=24-	=24-	=24-
*	*	*	*	*	*	*	*	*	*ij
2F/	-no	4f\	-no	1r	.	.	.	4dd\	Sono
.	.	4a\	an-	.	.	2cc\	-ge	4ff\	an-
2G\	an-	4.g\	-cor	.	.	.	.	4ee\	-cor
.	.	.	.	.	.	4b-/	mi-	4dd\	te-
.	.	8f\	teco	.	.	.	.	.	.
=25-	=25-	=25-	=25-	=25-	=25-	=25-	=25-	=25-	=25-
4A\	-cor	2e\	quì	4r	.	4a/	.	4cc\	-co
*	*	*	*	*	*	*	*	*	*Xij
4A\	te-	.	.	4cc\	col-	4e/	.	4cc\	col
*custos:G	*	*	*	*custos:b	*	*custos:g	*	*custos:dd	*
!LO:LB:g=original	!	!	!	!LO:LB:g=original	!	!	!	!	!
!	!	!	!	!LO:N:acc=#	!	!LO:LB:g=original	!	!LO:LB:g=original	!
4G\	-co	4r	.	4bn\	-gre-	2g/	-o	4dd\	gre-
4c\	quì	4c/	col	4cc\	-ge	.	.	4ee-X\	-ge
=26-	=26-	=26-	=26-	=26-	=26-	=26-	=26-	=26-	=26-
!LO:N:acc=#	!	!	!	!	!	!	!	!	!
2Bn\	col	2d\	gre-	0g	mi-	2r	.	2dd\	mi-
2c\	gre-	2e\	-ge	.	.	4r	.	2.cc\	.
*	*	*	*	*	*	*	*ij	*	*
.	.	.	.	.	.	4gg\	col	.	.
=27-	=27-	=27-	=27-	=27-	=27-	=27-	=27-	=27-	=27-
1G	-ge	1d	mi-	.	.	4gg\	gre-	.	.
!	!	!	!	!	!	!	!	!LO:N:acc=#	!
.	.	.	.	.	.	4gg\	-ge	4bn/	.
.	.	.	.	.	.	2dd\	mi-	2b/	.
=28-	=28-	=28-	=28-	=28-	=28-	=28-	=28-	=28-	=28-
1C	mio	1c	-o	1g	-o	1ee	-o	1cc	-o
*	*	*	*	*	*	*	*Xij	*	*
=29-	=29-	=29-	=29-	=29-	=29-	=29-	=29-	=29-	=29-
00r	.	1f	Ahi	1a	Ahi	2r	.	1cc	Ahi
.	.	.	.	.	.	1ff\	Ahi	.	.
=30-	=30-	=30-	=30-	=30-	=30-	=30-	=30-	=30-	=30-
.	.	2a\	sde-	2cc\	sde-	.	.	1r	.
.	.	2g\	-gno-	2b-y\	-gno-	4ee-X\	sde-	.	.
.	.	.	.	.	.	4dd\	-gno-	.	.
=31-	=31-	=31-	=31-	=31-	=31-	=31-	=31-	=31-	=31-
.	.	4g\	-ſetta	4b-\	-ſet-	2.dd\	-ſet-	2r	.
.	.	4d\	et	4a\	-ta	.	.	.	.
.	.	2g\	ſie-	2b-\	ſie-	.	.	4r	.
.	.	.	.	.	.	4eeny\	-ta	4g/	et
=32-	=32-	=32-	=32-	=32-	=32-	=32-	=32-	=32-	=32-
.	.	4d\	-ra	2.a\	-ra	2ff\	fie-	2dd\	ſie-
.	.	4e\	Li-	.	.	.	.	.	.
*	*	*custos:f	*	*	*	*	*	*	*
!	!	!LO:LB:g=original	!	!	!	!	!	!	!
.	.	4f\	-co-	.	.	4cc\	-ra	4a/	-ra
!	!	!	!	!	!	!	!	!LO:N:acc=#	!
.	.	8e\	.	4f\	Li-	4dd\	Li-	4bn/	Li-
.	.	8d\	.	.	.	.	.	.	.
=33-	=33-	=33-	=33-	=33-	=33-	=33-	=33-	=33-	=33-
2r	.	4c\	.	1g	-co-	4ee-X\	-co-	4cc\	-co-
.	.	4d\	.	.	.	8dd\	.	8b-y/	.
.	.	.	.	.	.	8cc\	.	8a/	.
4r	.	2e-X\	.	.	.	4b-\	.	8g/	.
.	.	.	.	.	.	.	.	8f/	.
4C/	et	.	.	.	.	4cc\	.	8g/	.
.	.	.	.	.	.	.	.	8a/	.
=34-	=34-	=34-	=34-	=34-	=34-	=34-	=34-	=34-	=34-
2G\	ſie-	4d\	-ri	4g\	-ri	1dd	.	8b-\	.
.	.	.	.	.	.	.	.	8cc\	.
.	.	4d\	et	2b-\	et	.	.	8dd\	.
.	.	.	.	.	.	.	.	8eeny\	.
4D/	-ra	2B-/	ſie-	.	.	.	.	4ff\	.
*	*	*	*	*	*	*	*	*custos:gg	*
!	!	!	!	!	!	!	!	!LO:LB:g=original	!
4E/	Li-	.	.	4g\	ſie-	.	.	4.gg\	.
=35-	=35-	=35-	=35-	=35-	=35-	=35-	=35-	=35-	=35-
2F/	-co-	4A/	-ra	4a\	-ra	1cc	-ri	.	.
.	.	.	.	.	.	.	.	8ff\	.
.	.	4A/	Li-	4f\	Li-	.	.	2ff\	.
2C/	-ri	2G/	-co-	2g\	-co-	.	.	.	.
.	.	.	.	.	.	.	.	4ee\	.
*	*	*	*	*	*	*custos:cc	*	*	*
!	!	!	!	!	!	!LO:LB:g=original	!	!	!
=36-	=36-	=36-	=36-	=36-	=36-	=36-	=36-	=36-	=36-
4r	.	1F	-ri	2a\	-ri	4r	.	2ff\	-ri
4A\	et	.	.	.	.	4cc\	et	.	.
4.A\	par-	.	.	2r	.	4.cc\	par-	4r	.
.	.	.	.	.	.	.	.	4cc\	et
8B-y\	-ti-	.	.	.	.	8dd\	-ti-	.	.
*custos:c	*	*	*	*	*	*	*	*	*
!LO:LB:g=original	!	!	!	!	!	!	!	!	!
=37-	=37-	=37-	=37-	=37-	=37-	=37-	=37-	=37-	=37-
4c\	-ro	1r	.	4r	.	4eeny\	-ro	4.cc\	par-
4c\	pian-	.	.	4a\	et	4ee\	pian-	.	.
.	.	.	.	.	.	.	.	8b-/	-ti-
*	*	*	*	*custos:a	*	*	*	*	*
!	!	!	!	!LO:LB:g=original	!	!	!	!	!
4d\	-gen-	.	.	4.a\	par-	4ff\	-gen-	4a/	-ro
4d\	-d'in	.	.	.	.	4dd\	-do	4f/	pian-
.	.	.	.	8b-\	-ti-	.	.	.	.
=38-	=38-	=38-	=38-	=38-	=38-	=38-	=38-	=38-	=38-
2c\	dog-	4r	.	4cc\	-ro	2ee\	in dog-	4g/	-gen-
*	*	*	*	*	*ij	*	*	*	*
.	.	4c/	et	4g\	et	.	.	4cc\	-d'in
2F/	-lia	4.c/	par-	4.a\	par-	2ff\	-lia	4cc\	dog-
.	.	.	.	.	.	.	.	4f/	-lia
.	.	8d\	-ti-	8b-\	-ti-	.	.	.	.
=39-	=39-	=39-	=39-	=39-	=39-	=39-	=39-	=39-	=39-
2r	.	4eny\	-ro	2cc\	-ro	4r	.	4r	.
.	.	4f\	pian-	.	.	4f/	et	4a/	et
4r	.	4d\	-gẽdo	2r	.	4.f/	par-	4.a/	par-
4F/	et	4d\	in	.	.	.	.	.	.
.	.	.	.	.	.	8g/	-ti-	8b-/	-ti-
*	*	*custos:c	*	*	*Xij	*	*	*	*
!	!	!LO:LB:g=original	!	!	!	!	!	!	!
=40-	=40-	=40-	=40-	=40-	=40-	=40-	=40-	=40-	=40-
4.F/	par-	2c/	dog-	4r	.	4a/	-ro	4cc\	-ro
.	.	.	.	4a\	et	4cc\	pian-	4ff\	et
8G\	-ti-	.	.	.	.	.	.	.	.
*	*	*	*	*	*	*	*	*custos:ff	*
!	!	!	!	!	!	!	!	!LO:LB:g=original	!
4A\	-ro	2F/	-lia	4.a\	par-	2cc\	-gẽdo	4.ff\	par-
4A\	pian-	.	.	.	.	.	.	.	.
.	.	.	.	8g\	-ti-	.	.	8ee\	-ti-
=41-	=41-	=41-	=41-	=41-	=41-	=41-	=41-	=41-	=41-
4B-\	-gẽdo	00r	.	4f\	-ro	2b-/	in	4dd\	-rò
4G\	in	.	.	4g\	pian-	.	.	4ee\	pian-
8F/	do-	.	.	4.c/	-gen-	2.a/	do-	4ff\	-gẽ(n)-
8G\	.	.	.	.	.	.	.	.	.
8A\	.	.	.	.	.	.	.	4cc\	-do
8B-\	.	.	.	8d/	.	.	.	.	.
*custos:c	*	*	*	*	*	*	*	*	*
!LO:LB:g=original	!	!	!	!	!	!	!	!	!
=42-	=42-	=42-	=42-	=42-	=42-	=42-	=42-	=42-	=42-
1c	.	.	.	4e/	-do	.	.	2cc\	in dog-
.	.	.	.	4f\	in	8g/	.	.	.
.	.	.	.	.	.	8f/	.	.	.
*	*	*	*	*	*	*custos:e	*	*	*
!	!	!	!	!	!	!LO:LB:g=original	!	!	!
.	.	.	.	2g\	dog-	2e/	.	2cc\	-lia
=43-	=43-	=43-	=43-	=43-	=43-	=43-	=43-	=43-	=43-
1F	-glia	.	.	4a\	-lia	1f	-glia	4r	.
.	.	.	.	4a\	Che	.	.	4cc\	Che
*	*	*	*	*custos:f	*	*	*	*	*
!	!	!	!	!LO:LB:g=original	!	!	!	!	!
.	.	.	.	4f\	di	.	.	4a/	di
.	.	.	.	4.a\	tan-	.	.	4.cc\	tan-
=44-	=44-	=44-	=44-	=44-	=44-	=44-	=44-	=44-	=44-
2r	.	.	.	.	.	2r	.	.	.
.	.	.	.	8g\	-ti	.	.	8b-\	-ti
.	.	.	.	4f\	tuoi	.	.	4a/	tuoi
4r	.	.	.	2e/	fio-	4r	.	2g/	fiori
4c\	Che	.	.	.	.	4cc\	Che	.	.
=45-	=45-	=45-	=45-	=45-	=45-	=45-	=45-	=45-	=45-
4F/	di	1r	.	2f\	-ri	4a/	di	2f/	vn
4.A\	tan-	.	.	.	.	4.cc\	tan-	.	.
.	.	.	.	4r	.	.	.	2cc\	ſol
8G\	-ti	.	.	.	.	8b-/	-ti	.	.
4F/	tu-	.	.	4c/	vn	4a/	tuoi	.	.
=46-	=46-	=46-	=46-	=46-	=46-	=46-	=46-	=46-	=46-
2E/	-oi	4r	.	2cc\	ſol	2g/	fio-	1r	.
.	.	4G/	vn	.	.	.	.	.	.
2F/	fiori	2c/	ſol	2r	.	4a/	-ri	.	.
.	.	.	.	.	.	4cc\	vn	.	.
=47-	=47-	=47-	=47-	=47-	=47-	=47-	=47-	=47-	=47-
0r	.	2r	.	0r	.	2.gg\	ſol	4r	.
.	.	.	.	.	.	.	.	4cc\	vn
.	.	4r	.	.	.	.	.	2.gg\	ſol
*	*	*	*ij	*	*	*	*	*	*
.	.	4c/	vn	.	.	4ee\	non	.	.
=48-	=48-	=48-	=48-	=48-	=48-	=48-	=48-	=48-	=48-
.	.	1g	ſol	.	.	4dd\	to-	.	.
.	.	.	.	.	.	4.cc\	.	4ee\	non
*	*	*	*Xij	*	*	*	*	*custos:dd	*
!	!	!	!	!	!	!	!	!LO:LB:g=original	!
.	.	.	.	.	.	.	.	2dd\	tog-
!	!	!	!	!	!	!LO:N:acc=#	!	!	!
.	.	.	.	.	.	8bn\	.	.	.
.	.	.	.	.	.	4b\	.	.	.
=49-	=49-	=49-	=49-	=49-	=49-	=49-	=49-	=49-	=49-
4r	.	2r	.	4r	.	1cc	glia	2cc\	-lia
4F/	et	.	.	4a\	et	.	.	.	.
4.F/	par-	4r	.	4.a\	par-	.	.	4r	.
.	.	4d\	et	.	.	.	.	4ff\	et
8E/	-ti-	.	.	8g\	-ti-	.	.	.	.
=50-	=50-	=50-	=50-	=50-	=50-	=50-	=50-	=50-	=50-
4D/	-ro	4.d\	par-	4f\	-ro	1r	.	4.ff\	par-
4D/	pian-	.	.	4f\	pian-	.	.	.	.
.	.	8c/	-ti-	.	.	.	.	8ee\	-ti-
!	!	!LO:N:acc=#	!	!	!	!	!	!	!
2G\	-gen-	4Bn/	-ro	2.g\	-gen-	.	.	4dd\	-rò
.	.	4B/	pian-	.	.	.	.	4dd\	pian-
=51-	=51-	=51-	=51-	=51-	=51-	=51-	=51-	=51-	=51-
2C/	-do in	4c/	-gen-	.	.	4r	.	4ee-X\	-gen-
.	.	4c/	-do	4cc\	-do in	4gg\	et	4ee-\	-do
*custos:G	*	*	*	*	*	*custos:gg	*	*	*
!LO:LB:g=original	!	!	!	!LO:N:acc=#	!	!LO:LB:g=original	!	!	!
2G\	dog-	2d\	in dog-	2bn\	dog-	4.gg\	par-	2dd\	in dog-
.	.	.	.	.	.	8ff\	-ti-	.	.
=52-	=52-	=52-	=52-	=52-	=52-	=52-	=52-	=52-	=52-
2C/	-lia	4c/	-lia	4cc\	-lia	4ee\	-ro	1cc	-lia
.	.	4c/	et	4g\	et	4ee\	pian-	.	.
*	*	*custos:c	*	*custos:e	*	*	*	*	*ij
!	!	!LO:LB:g=original	!	!LO:LB:g=original	!	!	!	!	!
4r	.	4.c\	par-	4.e/	par-	2ee\	-gen-	.	.
4c\	et	.	.	.	.	.	.	.	.
.	.	8d\	-ti-	8f\	-ti-	.	.	.	.
=53-	=53-	=53-	=53-	=53-	=53-	=53-	=53-	=53-	=53-
4.c\	par-	4e\	-ro	2g\	-ro	4cc\	-do	1r	.
.	.	2e\	pian-	.	.	4cc\	et	.	.
8B-\	-ti-	.	.	.	.	.	.	.	.
4A\	-ro	.	.	4r	.	4.cc\	par-	.	.
*	*	*	*	*	*ij	*	*	*	*
4F/	et	2f\	-gen-	4a\	et	.	.	.	.
.	.	.	.	.	.	8b-y/	-ti-	.	.
=54-	=54-	=54-	=54-	=54-	=54-	=54-	=54-	=54-	=54-
4.F/	par-	.	.	4.a\	par-	4a/	-ro	4r	.
.	.	4c/	-do	.	.	4cc\	pian-	4ff\	et
8E/	-ti-	.	.	8g\	-ti-	.	.	.	.
4D/	-ro	4r	.	4f\	-ro	4.dd\	-gen-	4.ff\	par-
*	*	*	*ij	*	*Xij	*	*	*	*
4D/	pian-	4d\	par-	4f\	pian-	.	.	.	.
.	.	.	.	.	.	8cc\	.	8eeny\	-ti-
=55-	=55-	=55-	=55-	=55-	=55-	=55-	=55-	=55-	=55-
2G\	-gen-	4.d\	-ti-	2.g\	-gẽdo	4.b-/	.	4dd\	-ro
.	.	.	.	.	.	.	.	4dd\	pian-
.	.	8c\	-ro	.	.	8a/	.	.	.
2G\	-do	4B-y/	pain-	.	.	8g/	.	4ee-X\	-gen-
.	.	.	.	.	.	8a/	.	.	.
.	.	4G/	-gen-	4g\	in	8b-\	.	2dd\	-do
.	.	.	.	.	.	8cc\	.	.	.
=56-	=56-	=56-	=56-	=56-	=56-	=56-	=56-	=56-	=56-
1G	in dog-	4B-/	-do	1g	dog-	4dd\	-do	.	.
*	*	*	*Xij	*	*	*	*	*	*
.	.	4c/	in	.	.	4ee-X\	in	2cc\	in
.	.	2d\	dog-	.	.	4dd\	dog-	.	.
!	!	!	!	!	!	!	!	!LO:N:acc=#	!
.	.	.	.	.	.	4g/	-lia	4bn/	dog-
*	*	*	*	*	*	*	*	*custos:cc	*
!	!	!	!	!	!	!	!	!LO:LB:g=original	!
=57-	=57-	=57-	=57-	=57-	=57-	=57-	=57-	=57-	=57-
2C/	-lia	2c/	-lia	2g\	-lia	0r	.	1cc	-lia
2c\	Che	2e\	Che	4r	.	.	.	.	.
.	.	.	.	4g\	Che	.	.	.	.
*custos:A	*	*	*	*	*	*	*	*	*Xij
!LO:LB:g=original	!	!	!	!	!	!	!	!	!
=58-	=58-	=58-	=58-	=58-	=58-	=58-	=58-	=58-	=58-
4A\	di	4f\	di	4a\	di	.	.	00r	.
4.c\	tan-	4.e\	tan-	4g\	tan-	.	.	.	.
.	.	.	.	4g\	-ti	.	.	.	.
8B-\	-ti	8d\	-ti	.	.	.	.	.	.
4A\	tuoi	2f\	tuoi	4a\	tu-	.	.	.	.
=59-	=59-	=59-	=59-	=59-	=59-	=59-	=59-	=59-	=59-
2G\	fio-	.	.	2b-y\	-oi	2r	.	.	.
.	.	4e\	fio-	.	.	.	.	.	.
*	*	*custos:f	*	*	*	*	*	*	*
!	!	!LO:LB:g=original	!	!	!	!	!	!	!
1F\	-ri	2f\	-ri	4a\	fiori	4r	.	.	.
*	*	*	*	*	*ij	*	*	*	*
.	.	.	.	4a\	Che	4cc\	Che	.	.
*	*	*	*	*custos:f	*	*custos:a	*	*	*
!	!	!	!	!LO:LB:g=original	!	!LO:LB:g=original	!	!	!
=60-	=60-	=60-	=60-	=60-	=60-	=60-	=60-	=60-	=60-
.	.	1r	.	4f\	di	4a/	di	.	.
.	.	.	.	4.a\	tan-	4.cc\	tan-	.	.
2r	.	.	.	.	.	.	.	.	.
.	.	.	.	8g\	-ti	8b-/	-ti	.	.
.	.	.	.	4f\	tuoi	4a/	tuoi	.	.
=61-	=61-	=61-	=61-	=61-	=61-	=61-	=61-	=61-	=61-
4r	.	4r	.	4e/	fiori	2g/	fiori	.	.
*	*ij	*	*ij	*	*Xij	*	*	*	*
4c\	Che	4e\	Che	4c/	vn	.	.	.	.
4A\	di	4f\	di	2cc\	ſol	4a/	vn	.	.
4.c\	tan-	4.e\	tan-	.	.	2g/	ſol	.	.
=62-	=62-	=62-	=62-	=62-	=62-	=62-	=62-	=62-	=62-
.	.	.	.	2c/	vn	.	.	2r	.
8B-\	-ti	8d\	-ti	.	.	.	.	.	.
4A\	tuoi	4c/	tuoi	.	.	4a/	nõ	.	.
!	!	!	!	!	!	!LO:N:acc=#	!	!	!
2G\	fio-	2d\	fio-	2.g\	ſol	2bn/	tog-	4r	.
.	.	.	.	.	.	.	.	4gg\	Che
=63-	=63-	=63-	=63-	=63-	=63-	=63-	=63-	=63-	=63-
1C	-ri	2c\	-ri	.	.	1cc	-lia	4eeny\	di
*	*Xij	*	*Xij	*	*	*	*	*	*
.	.	.	.	2e/	non	.	.	4.gg\	tan-
.	.	4r	.	.	.	.	.	.	.
.	.	.	.	.	.	.	.	8ff\	-ti
.	.	4c/	vn	4.cc\	te-	.	.	4ee\	tuoi
=64-	=64-	=64-	=64-	=64-	=64-	=64-	=64-	=64-	=64-
0r	.	2g\	ſol	.	.	4r	.	2dd\	fiori
!	!	!	!	!LO:N:acc=#	!	!	!	!	!
.	.	.	.	8bn\	.	.	.	.	.
.	.	.	.	4b\	.	4gg\	Che	.	.
.	.	2r	.	4cc\	glia	4eeny\	di	2cc\	vn
.	.	.	.	4c/	vn	4.gg\	.	.	.
=65-	=65-	=65-	=65-	=65-	=65-	=65-	=65-	=65-	=65-
.	.	2r	.	2.g\	ſol	.	.	4dd\	ſol
.	.	.	.	.	.	8ff\	tan-	.	.
.	.	.	.	.	.	4ee\	-ti	4cc\	non
!	!	!	!	!	!	!	!	!LO:N:acc=#	!
*	*	*	*ij	*	*	*	*	*	*
.	.	2G/	vn	.	.	2dd\	toi	2bn/	tog-
.	.	.	.	4g\	non	.	.	.	.
=66-	=66-	=66-	=66-	=66-	=66-	=66-	=66-	=66-	=66-
2r	.	1c	ſol	2e/	tog-	2cc\	fiori	4cc\	-lia
.	.	.	.	.	.	.	.	2cc\	vn
2C/	vn	.	.	2.e/	-lia	4r	.	.	.
.	.	.	.	.	.	2g/	vn	2gg\	ſol
=67-	=67-	=67-	=67-	=67-	=67-	=67-	=67-	=67-	=67-
2c\	ſol	4r	.	.	.	.	.	.	.
*	*	*	*Xij	*	*ij	*	*	*	*
.	.	4F/	vn	4a\	vn-	2cc\	ſol	4ff\	non
2C/	non	2.c/	ſol	8g\	-ſol	.	.	2ee\	to-
.	.	.	.	8f\	.	.	.	.	.
.	.	.	.	8e\	.	4a/	nõ	.	.
.	.	.	.	8d/	.	.	.	.	.
=68-	=68-	=68-	=68-	=68-	=68-	=68-	=68-	=68-	=68-
1C	to-	.	.	4e\	.	4g/	to-	00cc	-glia.
.	.	4A/	non	4f\	non	4.f/	.	.	.
.	.	2G/	to-	2g\	to-	.	.	.	.
.	.	.	.	.	.	8e/	.	.	.
.	.	.	.	.	.	4e/	.	.	.
=69-	=69-	=69-	=69-	=69-	=69-	=69-	=69-	=69-	=69-
00F/	-glia	00F	-glia.	00a	-glia	00f	-glia.	.	.
=70-	=70-	=70-	=70-	=70-	=70-	=70-	=70-	=70-	=70-
.	.	.	.	.	.	.	.	1ryy	.
==	==	==	==	==	==	==	==	==	==
*-	*-	*-	*-	*-	*-	*-	*-	*-	*-
!!!system-decoration: [(s1,s2,s3,s4,s5)]
!!!ENC: Marta Opryszak
!!!END: 2022-07-11
!!!ENC: Jan Barakat
!!!END: 2022-08-04
